icons/desktop/16/svg/extension-cut-16.svg

<svg width="16" height="16" viewBox="0 0 16 16" fill="none" xmlns="http://www.w3.org/2000/svg">
<path d="M8 0.0112C6.59802 0.137436 5.5 1.31506 5.5 2.75V3.5H3.5C2.39579 3.5 1.5 4.39579 1.5 5.5V7.75C1.5 8.16421 1.83579 8.5 2.25 8.5H4.25C4.94079 8.5 5.5 9.05921 5.5 9.75C5.5 10.4408 4.94079 11 4.25 11H2.25C1.83579 11 1.5 11.3358 1.5 11.75V14C1.5 15.1042 2.39579 16 3.5 16H13C14.1042 16 15 15.1042 15 14V6H13.5V14C13.5 14.2758 13.2758 14.5 13 14.5H3.5C3.22421 14.5 3 14.2758 3 14V12.5H4.25C5.76921 12.5 7 11.2692 7 9.75C7 8.23079 5.76921 7 4.25 7H3V5.5C3 5.22421 3.22421 5 3.5 5H6.25C6.66421 5 7 4.66421 7 4.25V2.75C7 2.14484 7.42917 1.64065 8 1.52496V0.0112Z" fill="black"/>
</svg>

<!-- This Source Code Form is subject to the terms of the Mozilla Public
   - License, v. 2.0. If a copy of the MPL was not distributed with this
   - file, You can obtain one at http://mozilla.org/MPL/2.0/. -->
<svg xmlns="http://www.w3.org/2000/svg" width="16" height="16" fill="context-fill" fill-opacity="context-fill-opacity" viewBox="0 0 16 16">
    <path d="M8 .011A2.75 2.75 0 0 0 5.5 2.75v.75h-2a2 2 0 0 0-2 2v2.25c0 .414.336.75.75.75h2a1.25 1.25 0 1 1 0 2.5h-2a.75.75 0 0 0-.75.75V14a2 2 0 0 0 2 2H13a2 2 0 0 0 2-2V6h-1.5v8a.5.5 0 0 1-.5.5H3.5A.5.5 0 0 1 3 14v-1.5h1.25a2.75 2.75 0 1 0 0-5.5H3V5.5a.5.5 0 0 1 .5-.5h2.75A.75.75 0 0 0 7 4.25v-1.5c0-.605.43-1.11 1-1.225z" />
</svg>
